X: 564
T: Dil-harâb-ı Aşkınım
C: Tanburî Ali Efendi
O: Turkey
F: http://compmusic.upf.edu/node/140
N: segah--sarki--devrihindi--dil_harab-i--tanburi_ali_efendi
N: makam= segah
N: form= sarki
N: usul= devrihindi = 7/4
M: 7/4
L: 1/16
K: C _1/4B _1/4e ^f 
Q: 1/4=90
%%MIDI tuningsystem comma53
G2B2 ^A2B2 A2B2 c2d2 {=e}d2c2 B3A G4  | \
w:  ARANAĞME  | 
B2d2 ^c2d2 c2d2 e2g2 =f2e2 d3=c B4  | 
w:   | 
f8 ^e2f2 g3_b a2g2 =f2_1/4e2 d2c2  | \
w:   | 
B2c2 d2e2 =f2e2 d2c2 B2^A2 B8  | 
w:   | 
G2B2 ^A2B2 A2B2 c2d2 {=e}d2c2 B3A G4  | \
w:  ARANAĞME  | 
B2d2 ^c2d2 c2d2 e2g2 =f2e2 d3=c B4  | 
w:   | 
f8 ^e2f2 g3_b a2g2 =f2_1/4e2 d2c2  | \
w:   | 
B2c2 d2e2 =f2e2 d2c2 B2^A2 B8  | 
w:   | 
B8 ^A2B2 c6_2/4B=A A8  | F8 A4 G2{A}G2 F2=E2 D8  | \
w:  Dil  ha *  rab_ *  *  ı   |  aş kı nım  *  *  *  *  sen  | 
B8 d4 c2d2 {=e}d2c2 B3^A B2c2  | 
w:  sin  se bep  *  *  *  *  ber  | 
d2_2/4e2 f4 e2d2 d6c2 B2^A2 B4  | \
w:  ba *  *  dı *  ma   SAZ  | 
B8 ^A2B2 c6_2/4B=A A8  | F8 A4 G2{A}G2 F2=E2 D8  | 
w:  Dil  ha *  rab_ *  *  ı   |  aş kı nım  *  *  *  *  sen  | 
B8 d4 c2d2 {=e}d2c2 B3^A B2c2  | d2e2 f4 e2d2 d6c2 B2c2 d4  | \
w:  sin  se bep  *  *  *  *  ber  |  ba *  *  dı *  ma   SAZ  | 
d8 c2d2 e4 {g}=f2e2 d4 {e}d2c2  | 
w:  Bir  te *  sel *  *  *  lî   | 
B8 d4 B2c2 ^A2B2 G8  | c3B ^A4 B4 c4 d4 d2c2 {d}c2B2  | \
w:  ver  ge lip  *  *  *  ba  |  ri  *  *  dil_ i  *  nâ  | 
B2^A2 A2G2 c2B2 B6c2 B2c2 d4  | 
w:  şâ *  *  *  dı *  ma   SAZ  | 
d8 c2d2 e4 {g}=f2e2 d4 {e}d2c2  | \
w:  Bir  te *  sel *  *  *  lî   | 
B8 d4 B2c2 ^A2B2 G8  | c3B ^A4 B4 c4 d4 d2c2 {d}c2B2  | 
w:  ver  ge lip  *  *  *  ba  |  ri  *  *  dil_ i  *  nâ  | 
B2^A2 A2G2 c2B2 B6g2 f2^e2 f4  | B8 g4 f3^e d2e2 f8  | \
w:  şâ *  *  *  dı *  ma   SAZ  |  Taş  mı dır  *  *  *  bağ  | 
f2g2 f4 ^e4 f2g2 f2g2 a8  | 
w:  rın  *  *  ki  gel *  *  *  mez  | 
g8 g2f2 f2g2 ^3/4f2e2 =f3e d4  | e4 =f4 e2d2 {e}d4 d2c2 B2^A2 B4  | \
w:  sin  be *  nim  *  *  *  im  |  da *  dı *  *  ma   *  SAZ  | 
B8 g4 f3^e d2e2 f8  | 
w:  Taş  mı dır  *  *  *  bağ  | 
f2g2 f4 ^e4 f2g2 f2g2 a8  | g8 g2f2 f2g2 ^3/4f2e2 =f3e d4  | \
w:  rın  *  *  ki  gel *  *  *  mez  |  sin  be *  nim  *  *  *  im  | 
e4 =f4 e2d2 d6c2 B2c2 d4  | 
w:  da *  dı *  ma   SAZ  | 
d8 c2d2 e4 {g}=f2e2 d4 {e}d2c2  | \
w:  Bir  te *  sel *  *  *  lî   | 
B8 d4 B2c2 ^A2B2 G8  | c3B ^A4 B4 c4 d4 d2c2 {d}c2B2  | 
w:  ver  ge lip  *  *  *  ba  |  ri  *  *  dil_ i  *  nâ  | 
B2^A2 A2G2 c2B2 B6c2 B2c2 d4  | d8 c2d2 e4 {g}=f2e2 d4 {e}d2c2  | \
w:  şâ *  *  *  dı *  ma   SAZ  |  Bir  te *  sel *  *  *  lî   | 
B8 d4 B2c2 ^A2B2 G8  | 
w:  ver  ge lip  *  *  *  ba  | 
c3B ^A4 B4 c4 d4 d2c2 {d}c2B2  | B2^A2 A2G2 c2B2 B6|
w:  ri  *  *  dil_ i  *  nâ  |  şâ *  *  *  dı *  ma    | 


